public/avatar/shoe/70.svg

<svg xmlns:xlink="http://www.w3.org/1999/xlink" height="38.3" width="36.05" xmlns="http://www.w3.org/2000/svg"><use height="20.55" transform="translate(13.15 9.35)" width="20.2" xlink:href="#a"/><defs><g id="a" fill-rule="evenodd"><path d="M8.2 5.85q.8 2.1.25 3.35-.7 1.65-2.9 3.7-2.3 2.1-3.7 2.15-2.05.05-5.85-1.4Q-8.4 11.9-8.6 10q-.4-3.9-.15-5.2l.65-1.5L7.25 4l.95 1.85" transform="translate(10.65 5.5)"/><path d="M-3.6-5.5q7.6.65 8.7 1.55Q10.3.4 9.45 2.2q-.6 1.45-2.9 2.4l-2.25.25-11.7-.9q-2.65-.65-3.1-2.2-.65-2.1 1.75-4.7 2.6-2.8 5.15-2.55" transform="translate(10.65 5.5)"/><path d="M-4.05 12.9Q-7.9 11.35-8.1 9.45-8.6 3.95-6.2.9q1.6-2 4.8-2 2.7 0 4.6 1.2 2.5 1.7 3.85 4.7 1.7 3.45-.45 5.7-3.5 3.75-5 3.75-2.35 0-5.65-1.35" transform="translate(10.65 5.5)"/><path d="M6.55 3.5 2.5 6.05Q-.5 9.3-3.8 9.1q-3.9-.35-3.9-4.2 0-6.85.95-7.75Q-4.1-5.2-1.15-4.4q6.7 1.8 6.8 3.3.25 3.35.9 4.6" transform="translate(10.65 5.5)"/><path d="M3.8-3.95q1.6.6 3.4 2.9 1.65 2.1 1.65 2.8 0 .75-2.55 2Q3.3 5.3-.05 5.3q-3.35 0-6.85-1.65Q-10 2.25-10 1.5q0-1.75 1.75-3.8 1.4-1.75 2.95-2.35l4.3-.2q3.7.35 4.8.9" transform="translate(10.65 5.5)"/><path d="M-.5-1q-3.25 0-4.25-1.2l-.3-1.2.8.75q1.35.75 3.7.75 3.8 0 4.6-1.05Q4.7-1-.5-1M8.15.7q1 1.15-.65 2.1Q3.75 4.95-.8 4.95q-2.4 0-5.7-1.3Q-9.45 2.5-9.7 1.9l-.25-.95.6-1 .25 1.15q.8 1.35 3.6 1.9l9.15.3q3.85-1.25 4.1-1.65l.4-.95m-6 12v.2L.7 11.25q-.6-.65-.25-2.8.15.75 2.05 2.5.45 1-.35 1.75" fill="#3a3933" transform="translate(10.65 5.5)"/><path d="m8 .45.3.85q-.05 1.15-2.7 1.75Q.4 4.4-.9 4.4q-4.3 0-6.75-1.7-1.9-1.05-1.9-1.35v-.8l.1-.85.25.85q.5.85 1.6 1.25Q-2.7 3.55.25 3.4 2.6 3.2 5.6 2.1q1-.4 1.95-.85L8 .45" fill="#c2934e" transform="translate(10.65 5.5)"/><path d="m.95 3.25 1.6-.2.25.7-1.65.4H.6L.5 3.4l.45-.15" fill="#ffc567" transform="translate(10.65 5.5)"/><path d="m7.45 6.85-.55 2.7-3 3.1-1.1.8q1.15-1.8 1.95-2.7L6.9 8.6l.55-1.75" fill="#66655a" transform="translate(10.65 5.5)"/><path d="M-6.25 10.85q-.9-.5-1.1-1.4L-7.6 6.6q0-1.25.2-1.65.35-.95.55-.1l1.1 3.35 1.6 1.35q.95.75.6 1.15-.9 1.05-2.7.15" fill="#3a3933" transform="translate(10.65 5.5)"/><path d="M1.6 9.8q.95.8.8 2.45L1.3 10.7.95 9.2l.65.6M-.6-.15-2.65-1.3l2.15.05q1.4.15 1.7 0Q.6-.3-.6-.15" fill="#bcb8a5" transform="translate(10.65 5.5)"/><path d="m-6.1 2.2-.1 1-1.15-.4-.95-.35-.45-.35.35-.75 2.3.85" fill="#95713b" transform="translate(10.65 5.5)"/><path d="m-8.25 1.5-.5.6-.55-.35.5-.95.55.7m1.8.6 1.4.45-.05 1.15h-.45l-1.15-.55.25-1.05" fill="#ab8245" transform="translate(10.65 5.5)"/></g></defs></svg>

<?xml version="1.0" encoding="UTF-8" standalone="no"?>
<svg xmlns:xlink="http://www.w3.org/1999/xlink" height="38.3px" width="36.05px" xmlns="http://www.w3.org/2000/svg">
  <g transform="matrix(1.0, 0.0, 0.0, 1.0, 23.8, 14.85)">
    <use height="20.55" transform="matrix(1.0, 0.0, 0.0, 1.0, -10.65, -5.5)" width="20.2" xlink:href="#shape0"/>
  </g>
  <defs>
    <g id="shape0" transform="matrix(1.0, 0.0, 0.0, 1.0, 10.65, 5.5)">
      <path d="M8.2 5.85 Q9.0 7.95 8.45 9.2 7.75 10.85 5.55 12.9 3.25 15.0 1.85 15.05 -0.2 15.1 -4.0 13.65 -8.4 11.9 -8.6 10.0 -9.0 6.1 -8.75 4.8 L-8.1 3.3 7.25 4.0 8.2 5.85" fill="#000000" fill-rule="evenodd" stroke="none"/>
      <path d="M-3.6 -5.5 Q4.0 -4.85 5.1 -3.95 10.3 0.4 9.45 2.2 8.85 3.65 6.55 4.6 L4.3 4.85 -7.4 3.95 Q-10.05 3.3 -10.5 1.75 -11.15 -0.35 -8.75 -2.95 -6.15 -5.75 -3.6 -5.5" fill="#000000" fill-rule="evenodd" stroke="none"/>
      <path d="M-4.05 12.9 Q-7.9 11.35 -8.1 9.45 -8.6 3.95 -6.2 0.9 -4.6 -1.1 -1.4 -1.1 1.3 -1.1 3.2 0.1 5.7 1.8 7.05 4.8 8.75 8.25 6.6 10.5 3.1 14.25 1.6 14.25 -0.75 14.25 -4.05 12.9" fill="#000000" fill-rule="evenodd" stroke="none"/>
      <path d="M6.55 3.5 L2.5 6.05 Q-0.5 9.3 -3.8 9.1 -7.7 8.75 -7.7 4.9 -7.7 -1.95 -6.75 -2.85 -4.1 -5.2 -1.15 -4.4 5.55 -2.6 5.65 -1.1 5.9 2.25 6.55 3.5" fill="#000000" fill-rule="evenodd" stroke="none"/>
      <path d="M3.8 -3.95 Q5.4 -3.35 7.2 -1.05 8.85 1.05 8.85 1.75 8.85 2.5 6.3 3.75 3.3 5.3 -0.05 5.3 -3.4 5.3 -6.9 3.65 -10.0 2.25 -10.0 1.5 -10.0 -0.25 -8.25 -2.3 -6.85 -4.05 -5.3 -4.65 L-1.0 -4.85 Q2.7 -4.5 3.8 -3.95" fill="#000000" fill-rule="evenodd" stroke="none"/>
      <path d="M-0.5 -1.0 Q-3.75 -1.0 -4.75 -2.2 L-5.05 -3.4 -4.25 -2.65 Q-2.9 -1.9 -0.55 -1.9 3.25 -1.9 4.05 -2.95 4.7 -1.0 -0.5 -1.0" fill="#3a3933" fill-rule="evenodd" stroke="none"/>
      <path d="M8.15 0.7 Q9.15 1.85 7.5 2.8 3.75 4.95 -0.8 4.95 -3.2 4.95 -6.5 3.65 -9.45 2.5 -9.7 1.9 L-9.95 0.95 -9.35 -0.05 -9.1 1.1 Q-8.3 2.45 -5.5 3.0 L3.65 3.3 Q7.5 2.05 7.75 1.65 L8.15 0.7" fill="#3a3933" fill-rule="evenodd" stroke="none"/>
      <path d="M2.15 12.7 L2.15 12.9 0.7 11.25 Q0.1 10.6 0.45 8.45 0.6 9.2 2.5 10.95 2.95 11.95 2.15 12.7" fill="#3a3933" fill-rule="evenodd" stroke="none"/>
      <path d="M8.0 0.45 L8.3 1.3 Q8.25 2.45 5.6 3.05 0.4 4.4 -0.9 4.4 -5.2 4.4 -7.65 2.7 -9.55 1.65 -9.55 1.35 L-9.55 0.55 -9.45 -0.3 -9.2 0.55 Q-8.7 1.4 -7.6 1.8 -2.7 3.55 0.25 3.4 2.6 3.2 5.6 2.1 6.6 1.7 7.55 1.25 L8.0 0.45" fill="#c2934e" fill-rule="evenodd" stroke="none"/>
      <path d="M0.95 3.25 L2.55 3.05 2.8 3.75 1.15 4.15 0.6 4.15 0.5 3.4 0.95 3.25" fill="#ffc567" fill-rule="evenodd" stroke="none"/>
      <path d="M7.45 6.85 L6.9 9.55 3.9 12.65 2.8 13.45 Q3.95 11.65 4.75 10.75 L6.9 8.6 7.45 6.85" fill="#66655a" fill-rule="evenodd" stroke="none"/>
      <path d="M-6.25 10.85 Q-7.15 10.35 -7.35 9.45 L-7.6 6.6 Q-7.6 5.35 -7.4 4.95 -7.05 4.0 -6.85 4.85 L-5.75 8.2 -4.15 9.55 Q-3.2 10.3 -3.55 10.7 -4.45 11.75 -6.25 10.85" fill="#3a3933" fill-rule="evenodd" stroke="none"/>
      <path d="M1.6 9.8 Q2.55 10.6 2.4 12.25 L1.3 10.7 0.95 9.2 1.6 9.8" fill="#bcb8a5" fill-rule="evenodd" stroke="none"/>
      <path d="M-0.6 -0.15 L-2.65 -1.3 -0.5 -1.25 Q0.9 -1.1 1.2 -1.25 0.6 -0.3 -0.6 -0.15" fill="#bcb8a5" fill-rule="evenodd" stroke="none"/>
      <path d="M-6.1 2.2 L-6.2 3.2 -7.35 2.8 -8.3 2.45 -8.75 2.1 -8.4 1.35 -6.1 2.2" fill="#95713b" fill-rule="evenodd" stroke="none"/>
      <path d="M-8.25 1.5 L-8.75 2.1 -9.3 1.75 -8.8 0.8 -8.25 1.5" fill="#ab8245" fill-rule="evenodd" stroke="none"/>
      <path d="M-6.45 2.1 L-5.05 2.55 -5.1 3.7 -5.55 3.7 -6.7 3.15 -6.45 2.1" fill="#ab8245" fill-rule="evenodd" stroke="none"/>
    </g>
  </defs>
</svg>
